X: 17
T:Branle des chevaulx (original)
R:Bransle
C:Trad.
S:Thoinot Arbeau
N:0178.gif
B:Orchesographie (1589)
O:France
Z:<anamnese@laposte.net> -- http://anamnese.fr.st
Z:Transcrit et/ou corrig? par Michel BELLON - 2006-11-25
Z:Pour toute observation mailto:galouvielle@free.fr
M:8/4
L:1/4
Q:1/4=220
K:Gmaj
deffgfegfedc B2A2 | deffgfegfdee d2 | 
ag/2f/2ee/2f/2gf/2e/2dfedcd e2e2 | ag/2f/2ee/2f/2gf/2e/2dfeddc d2d2 ||
=fe/2d/2 =fe/2d/2 cd e2 ABcdefed | =fe/2d/2 =fe/2d/2 cd e2 ABcdd^c d2 ||
<end>
<start>
